common/src/main/resources/glyphs/nodes/propertyRead.svg

<svg xmlns="http://www.w3.org/2000/svg" width="16" height="16" fill="#C792EA" data-big="true" viewBox="0 0 24 24"><path d="M5 9.5 7.5 14h-5zM3 4h4v4H3zm2 16a2 2 0 0 0 2-2 2 2 0 0 0-2-2 2 2 0 0 0-2 2 2 2 0 0 0 2 2M9 5v2h12V5zm0 14h12v-2H9zm0-6h12v-2H9z"/><path fill="#4CAF50" d="M21.5 13 19 15.25v5.5l2.5-2.25zm-6.25 1.5c-.975 0-2.025.2-2.75.75v7.33c0 .125.125.25.25.25.05 0 .075-.035.125-.035.675-.325 1.65-.545 2.375-.545.975 0 2.025.2 2.75.75.675-.425 1.9-.75 2.75-.75.825 0 1.675.155 2.375.53.05.025.075.015.125.015.125 0 .25-.125.25-.25V15.25a3.4 3.4 0 0 0-1-.5v6.75a5.8 5.8 0 0 0-1.75-.25c-.85 0-2.075.325-2.75.75v-6.75c-.725-.55-1.775-.75-2.75-.75"/></svg>

<!--
  - The MIT License (MIT)
  -
  - Copyright (c) 2015-2024 Elior "Mallowigi" Boukhobza
  -
  - Permission is hereby granted, free of charge, to any person obtaining a copy
  - of this software and associated documentation files (the "Software"), to deal
  - in the Software without restriction, including without limitation the rights
  - to use, copy, modify, merge, publish, distribute, sublicense, and/or sell
  - copies of the Software, and to permit persons to whom the Software is
  - furnished to do so, subject to the following conditions:
  -
  - The above copyright notice and this permission notice shall be included in all
  - copies or substantial portions of the Software.
  -
  - THE SOFTWARE IS PROVIDED "AS IS", WITHOUT WARRANTY OF ANY KIND, EXPRESS OR
  - IMPLIED, INCLUDING BUT NOT LIMITED TO THE WARRANTIES OF MERCHANTABILITY,
  - FITNESS FOR A PARTICULAR PURPOSE AND NONINFRINGEMENT. IN NO EVENT SHALL THE
  - AUTHORS OR COPYRIGHT HOLDERS BE LIABLE FOR ANY CLAIM, DAMAGES OR OTHER
  - LIABILITY, WHETHER IN AN ACTION OF CONTRACT, TORT OR OTHERWISE, ARISING FROM,
  - OUT OF OR IN CONNECTION WITH THE SOFTWARE OR THE USE OR OTHER DEALINGS IN THE
  - SOFTWARE.
  -->


<svg data-big="true" xmlns="http://www.w3.org/2000/svg" version="1.1" width="16px" height="16px" viewBox="0 0 24 24"
     fill="#C792EA">
  <path
    d="M5,9.5L7.5,14H2.5L5,9.5M3,4H7V8H3V4M5,20A2,2 0 0,0 7,18A2,2 0 0,0 5,16A2,2 0 0,0 3,18A2,2 0 0,0 5,20M9,5V7H21V5H9M9,19H21V17H9V19M9,13H21V11H9V13Z"/>
  <path transform="scale(.5) translate(24 24)" fill="#4CAF50"
        d="M19,2L14,6.5V17.5L19,13V2M6.5,5C4.55,5 2.45,5.4 1,6.5V21.16C1,21.41 1.25,21.66 1.5,21.66C1.6,21.66 1.65,21.59 1.75,21.59C3.1,20.94 5.05,20.5 6.5,20.5C8.45,20.5 10.55,20.9 12,22C13.35,21.15 15.8,20.5 17.5,20.5C19.15,20.5 20.85,20.81 22.25,21.56C22.35,21.61 22.4,21.59 22.5,21.59C22.75,21.59 23,21.34 23,21.09V6.5C22.4,6.05 21.75,5.75 21,5.5V7.5L21,13V19C19.9,18.65 18.7,18.5 17.5,18.5C15.8,18.5 13.35,19.15 12,20V13L12,8.5V6.5C10.55,5.4 8.45,5 6.5,5V5Z"/>

</svg>
